assets/icon-lipstick.svg

<svg
  class="icon icon-accordion icon-lipstick"
  aria-hidden="true"
  focusable="false"
  xmlns="http://www.w3.org/2000/svg"
  width="20"
  height="20"
  viewBox="0 0 20 20"
>
  <path d="M5.75667 9.01565C6.15216 8.63015 6.79313 8.6304 7.18832 9.01621L11.3583 13.0872C11.7535 13.473 11.7533 14.0983 11.3578 14.4838L7.09967 18.6344C6.3087 19.4054 5.02676 19.4049 4.23639 18.6332L1.49746 15.9593C0.707086 15.1877 0.707575 13.9372 1.49855 13.1662L5.75667 9.01565ZM10.6422 13.7852L6.47222 9.71421L2.2141 13.8648C1.81861 14.2503 1.81837 14.8755 2.21355 15.2613L4.95248 17.9352C5.34767 18.3211 5.98864 18.3213 6.38412 17.9358L10.6422 13.7852Z" />
  <path d="M9.72567 6.73552L13.6983 10.6138L10.5435 13.6889L6.57087 9.81062L9.72567 6.73552ZM9.72513 8.13208L8.00251 9.81118L10.544 12.2923L12.2666 10.6132L9.72513 8.13208Z" />
  <path d="M15.5129 1.0945C15.9084 0.709004 16.5493 0.709254 16.9445 1.09506L17.6972 1.82982C19.0803 3.18014 19.0795 5.36856 17.6953 6.7178L12.9823 11.3117L9.00968 7.43344L15.5129 1.0945ZM16.9811 2.52782L16.2284 1.79306L10.4413 7.434L12.9828 9.91516L16.9797 6.01924C17.9684 5.0555 17.969 3.49234 16.9811 2.52782Z" />
</svg>

<svg xmlns="http://www.w3.org/2000/svg" class="icon icon-accordion icon-lipstick" viewBox="0 0 20 20"><path d="M5.757 9.016a1.03 1.03 0 0 1 1.431 0l4.17 4.071a.97.97 0 0 1 0 1.397L7.1 18.634a2.06 2.06 0 0 1-2.864 0l-2.739-2.675a1.94 1.94 0 0 1 .002-2.793zm4.885 4.77-4.17-4.072-4.258 4.15a.97.97 0 0 0 0 1.397l2.738 2.674a1.03 1.03 0 0 0 1.432 0z"/><path d="m9.726 6.736 3.972 3.878-3.155 3.075L6.572 9.81zm0 1.396-1.723 1.68 2.541 2.48 1.723-1.679z"/><path d="M15.513 1.095a1.03 1.03 0 0 1 1.432 0l.752.735a3.397 3.397 0 0 1-.002 4.888l-4.713 4.594L9.01 7.433zm1.468 1.433-.753-.735-5.787 5.641 2.542 2.481L16.98 6.02a2.426 2.426 0 0 0 .001-3.491"/></svg>
